X:26
T:Paul's Alley. PFD2.026
B:Playford’s Dancing Master, Vol 2, 1713-28
Z:vmp.Chris Partington 2015 www.village-music-project.org.uk
M:3/2
L:1/4
Q:1/2=100
W:The 1st Cu take both hands and turn down the middle into the 2d Cu place
W:while the 2d Cu cast up slow and meet above
W:This to the first strain play’d once
W:The same again, that is the 2d Cu turn down the middle and the 1st Cu cast up
W:This to the first strain play’d twice
W:The two men lead out to the wall quick, then change hands and lead in again
W:then both turn round single and foot it, or foot it twice
W:The women doing the same at the same time
W:This to the last strain play’d once
W:Then beginning with your partners go right hands and left half round
W:This to the last strain play’d twice
K:D
a>ba fed|e>fe cBA|d>ed BAF|E3 AFD||
FA2 dBG|AF2dED|FA2dBG|AF2fed|]

